assets/results/soymilk.svg

<svg width="172" height="321" viewBox="0 0 172 321" fill="none" xmlns="http://www.w3.org/2000/svg">
<g clip-path="url(#clip0_67_236)">
<path d="M96.64 78.35L1.5 114.51V115.17V291.84L47.66 319.38L147.9 281.26V104.6V103.93L103.85 77.67" stroke="#EEEEEE" stroke-width="3" stroke-linejoin="round"/>
<path d="M147.9 104.6L47.66 142.69L1.5 115.18" stroke="#EEEEEE" stroke-width="3" stroke-linejoin="round"/>
<path d="M47.66 142.69V319.38" stroke="#EEEEEE" stroke-width="3" stroke-linejoin="round"/>
<path d="M64 240.12C64 240.67 64 241.41 63.91 242.25C65.4556 241.477 66.9518 240.609 68.39 239.65V241.86C67.07 242.67 65.39 243.59 63.81 244.38C63.81 245.3 63.76 246.22 63.76 247.04V247.83C65.2455 246.812 66.8343 245.954 68.5 245.27C71.9 243.96 74.5 244.79 74.5 247.7C74.5 250.4 72.93 252.9 69.58 254.99C68.6487 255.541 67.6835 256.032 66.69 256.46L65.87 254.46C66.8172 254.142 67.7314 253.734 68.6 253.24C70.51 252.13 72.18 250.49 72.18 248.58C72.18 246.83 70.6 246.46 68.53 247.26C66.8758 247.922 65.3078 248.782 63.86 249.82C63.86 251.7 63.95 253.58 63.95 254.49C63.95 256.91 63.06 257.96 61.72 258.49C59.72 259.26 56.72 258.61 56.72 256.43C56.72 254.49 59.06 251.55 61.72 249.35V247.94C61.72 247.14 61.72 246.28 61.72 245.41C61.15 245.67 60.65 245.89 60.22 246.05C58.83 246.59 57.96 246.88 57.22 247.1L57.15 244.94C58.1684 244.665 59.1701 244.331 60.15 243.94C60.63 243.75 61.15 243.52 61.73 243.26C61.73 242.26 61.73 241.41 61.73 241C61.7218 240.414 61.675 239.83 61.59 239.25L64.1 238.25C64.13 238.75 64.06 239.55 64 240.12ZM61.1 256.29C61.3585 256.18 61.5742 255.988 61.7148 255.745C61.8554 255.502 61.9134 255.219 61.88 254.94C61.88 254.21 61.83 252.94 61.81 251.44C60.14 252.9 58.96 254.53 58.96 255.44C58.96 256.35 60.33 256.59 61.1 256.29ZM76.39 239.37L75.27 241.61C73.5742 240.953 71.8044 240.506 70 240.28L71 238.17C72.8328 238.385 74.6389 238.787 76.39 239.37Z" fill="#EEEEEE"/>
<path d="M81.74 236.25C81.7075 237.935 81.7609 239.621 81.9 241.3C82.24 244.73 83.18 246.77 84.7 246.18C85.84 245.74 86.85 242.88 87.37 240.61L89.17 242.02C87.73 246.46 86.32 248.34 84.66 249.02C82.36 249.91 80.24 248.55 79.66 242.82C79.44 240.91 79.41 238.2 79.41 236.82C79.42 236.126 79.3597 235.432 79.23 234.75L82.01 233.75C81.8706 234.577 81.7805 235.412 81.74 236.25ZM97.74 239.68L95.4 241.5C95.01 237.75 93.71 233.23 91.4 231.4L93.66 229.78C95.73 231.6 97.42 236.13 97.71 239.68H97.74Z" fill="#EEEEEE"/>
<path d="M104.46 225.83C104.34 228.38 104.18 233.67 104.18 236.83C104.18 239.23 105.67 239.47 107.65 238.7C111.65 237.15 114.03 233.99 115.65 230.94L117.27 232.27C115.154 236.24 111.731 239.356 107.58 241.09C104.12 242.44 101.8 241.87 101.8 238.09C101.8 234.88 102.02 228.95 102.02 226.78C102.029 225.93 101.946 225.082 101.77 224.25L104.69 223.15C104.558 224.038 104.481 224.933 104.46 225.83Z" fill="#EEEEEE"/>
<path d="M122.5 220.51C122.468 222.178 122.522 223.847 122.66 225.51C123 228.91 123.94 230.94 125.46 230.35C126.6 229.91 127.61 227.06 128.13 224.81L129.93 226.21C128.49 230.62 127.08 232.5 125.42 233.14C123.12 234.03 121 232.69 120.42 227C120.231 225.006 120.148 223.003 120.17 221C120.177 220.329 120.117 219.659 119.99 219L122.77 218C122.63 218.831 122.54 219.669 122.5 220.51ZM138.5 223.88L136.16 225.69C135.77 221.97 134.47 217.48 132.16 215.69L134.42 214.08C136.49 215.85 138.18 220.35 138.47 223.88H138.5Z" fill="#EEEEEE"/>
<path d="M58.14 275.07C57.81 275.52 57.49 275.94 57.14 276.31C56.6239 276.05 56.089 275.83 55.54 275.65C57.002 274.113 58.1741 272.324 59 270.37L60.92 270.18C60.73 270.65 60.52 271.11 60.27 271.59L70.19 267.72V269.45L68.63 270.06V272.17L70.78 271.33V273.07L68.63 273.91V276L70.55 275.25V277L56.19 282.62V280.87L58.19 280.1V278L55.97 278.87V277.12L58.19 276.25L58.14 275.07ZM55.76 286.31C56.5832 285.122 57.208 283.808 57.61 282.42L59.51 282.13C59.1083 283.625 58.4703 285.046 57.62 286.34L55.76 286.31ZM59.87 275.58L61.06 275.12V273L59.87 273.47V275.58ZM59.87 279.43L61.06 278.97V276.87L59.87 277.33V279.43ZM62.38 280.91C62.5969 281.871 62.7373 282.847 62.8 283.83L60.88 284.83C60.8569 283.823 60.7532 282.82 60.57 281.83L62.38 280.91ZM63.92 274V271.89L62.7 272.37V274.48L63.92 274ZM62.7 276.23V278.32L63.92 277.85V275.75L62.7 276.23ZM65.7 279.55C66.1328 280.406 66.4682 281.309 66.7 282.24L64.7 283.39C64.5253 282.428 64.2435 281.489 63.86 280.59L65.7 279.55ZM66.82 270.76L65.57 271.25V273.36L66.82 272.87V270.76ZM66.82 274.62L65.57 275.11V277.21L66.82 276.71V274.62ZM69 277.89C69.798 278.626 70.5002 279.459 71.09 280.37L69.09 281.84C68.5428 280.882 67.8702 280 67.09 279.22L69 277.89Z" fill="#EEEEEE"/>
<path d="M77.58 267.38L72.13 269.51V268L77.58 265.87V267.38ZM87.1 272.56C87.1452 272.941 87.1049 273.327 86.982 273.69C86.8592 274.053 86.657 274.385 86.39 274.66C85.6378 275.267 84.7753 275.722 83.85 276C83.7735 275.407 83.5869 274.834 83.3 274.31C83.98 274.07 84.74 273.76 84.99 273.66C85.0857 273.641 85.1702 273.585 85.226 273.505C85.2819 273.425 85.3048 273.326 85.29 273.23V262.36L80 264.42V268.88C80 271.5 79.8 275.33 78.52 278.21C78.0906 277.981 77.623 277.831 77.14 277.77L74.27 278.9V279.56L72.75 280.16V274.54L77.14 272.82V277.39C77.9706 274.874 78.3366 272.227 78.22 269.58V263.45L87.1 260V272.56ZM77.19 269.77L72.81 271.48V270L77.19 268.29V269.77ZM72.81 272.24L77.19 270.53V272L72.81 273.71V272.24ZM77.14 265.24L72.91 266.89V265.41L77.14 263.76V265.24ZM75.58 275L74.28 275.51V277.41L75.58 276.9V275ZM81.83 267.54V266.42L80.56 266.91V265.5L81.83 265V263.93L83.37 263.33V264.4L84.67 263.89V265.31L83.37 265.82V266.94L84.79 266.38V267.81L80.49 269.49V268L81.83 267.54ZM81.98 274.11V274.67L80.59 275.21V270.29L84.66 268.7V273L81.98 274.11ZM81.98 271.16V272.71L83.24 272.22V270.67L81.98 271.16Z" fill="#EEEEEE"/>
<path d="M102.73 256.5C102.431 257.653 101.97 258.757 101.36 259.78C102.251 260.063 103.197 260.132 104.12 259.98C103.688 260.586 103.322 261.236 103.03 261.92C102.057 261.99 101.081 261.818 100.19 261.42C99.3044 262.466 98.2973 263.403 97.19 264.21C96.8908 263.813 96.5213 263.474 96.1 263.21L95.47 264.26C95.07 264.11 94.35 263.88 93.7 263.71V265.4L91.98 266.07V264.51C91.3299 265.41 90.5967 266.247 89.79 267.01C89.4686 266.693 89.1011 266.427 88.7 266.22C89.6536 265.445 90.5218 264.57 91.29 263.61L89.39 264.36V261.17L91.98 260.17V259.62L88.98 260.77V259.47L91.98 258.32V257.48L93.7 256.81V257.65L96.63 256.51V257.8L93.69 259V259.56L96.39 258.56V259.47C97.3224 258.15 98.0007 256.668 98.39 255.1L100.14 254.81C100.01 255.29 99.86 255.76 99.7 256.23L103.81 254.63V256.17L102.73 256.5ZM97.3 268.92L103.91 266.33V267.92L88.91 273.82V272.22L91.33 271.22V268.76L93.21 268.02V270.49L95.41 269.62V266.62L89.89 268.78V267.23L102.89 262.14V263.68L97.31 265.87V266.64L101.57 264.97V266.4L97.31 268.07L97.3 268.92ZM90.9 262.65L91.97 262.23V261.34L90.9 261.76V262.65ZM93.69 260.65V261.54L94.77 261.12V260.23L93.69 260.65ZM96.12 263.19C97.1908 262.49 98.16 261.645 99 260.68C98.6191 260.379 98.2825 260.025 98 259.63C97.75 260 97.52 260.36 97.25 260.69C96.9683 260.428 96.66 260.197 96.33 260V261.66L94.26 262.47C94.97 262.55 96.01 262.67 96.34 262.74L96.12 263.19ZM99 258C99.2753 258.457 99.635 258.857 100.06 259.18C100.392 258.578 100.653 257.941 100.84 257.28L99 258Z" fill="#EEEEEE"/>
<path d="M120.33 261.17L105.49 267V265.2L120.33 259.39V261.17ZM120.05 249.24L105.82 254.79V253L120.05 247.45V249.24ZM117.44 257.56C116.89 258.88 116.26 260.24 115.77 261.17L114 261.36C114.493 260.267 114.901 259.137 115.22 257.98L107.52 260.98V255.34L118.52 251.05V256.68L115.52 257.87L117.44 257.56ZM110.5 260C111.021 260.675 111.411 261.441 111.65 262.26L109.75 263.58C109.542 262.74 109.205 261.937 108.75 261.2L110.5 260ZM109.44 258.56L116.44 255.81V253.6L109.44 256.34V258.56Z" fill="#EEEEEE"/>
<path d="M130.24 245.52C129.71 246.64 129.13 247.86 128.64 248.76L129.64 249.25C128.85 250.35 127.87 251.64 126.91 252.77V253.06L130 251.63V253.39L127 254.88V257.22C127.048 257.593 127.001 257.972 126.863 258.322C126.725 258.672 126.5 258.981 126.21 259.22C125.44 259.778 124.586 260.21 123.68 260.5C123.572 259.957 123.358 259.44 123.05 258.98C123.75 258.73 124.52 258.42 124.75 258.33C124.98 258.24 125.05 258.15 125.05 257.97V255.83C123.9 256.38 122.82 256.83 121.91 257.3L121.71 255.53L125 254V252.81L125.53 252.6C125.83 252.23 126.14 251.78 126.44 251.33L122.44 252.91V251.2L127.88 249.07H127C127.58 247.947 128.071 246.78 128.47 245.58L130.24 245.52ZM129.99 244.32C127.493 245.845 124.886 247.182 122.19 248.32C122.12 247.827 121.957 247.352 121.71 246.92C124.162 245.832 126.537 244.579 128.82 243.17L129.99 244.32ZM122.56 251.05C122.415 250.354 122.176 249.681 121.85 249.05L123.33 248.05C123.68 248.66 123.943 249.317 124.11 250L122.56 251.05ZM125 249.71C124.963 248.964 124.835 248.225 124.62 247.51L126.19 246.69C126.446 247.367 126.602 248.078 126.65 248.8L125 249.71ZM134.7 254.13C135.22 253.93 135.3 253.26 135.4 250.67C135.991 250.856 136.614 250.917 137.23 250.85C137.05 253.91 136.6 255.25 134.88 255.92L132.95 256.68C131.17 257.38 130.65 256.89 130.65 254.68V242.76L132.65 241.96V253.88C132.65 254.78 132.74 254.88 133.23 254.69L134.7 254.13Z" fill="#EEEEEE"/>
<path d="M139.18 200.89L55.0601 233.21V147.54L139.18 116.3V200.89Z" stroke="#EEEEEE" stroke-width="3" stroke-linecap="square" stroke-linejoin="round"/>
<path d="M123.29 150.7C123.29 156.13 118.84 162.21 113.36 164.28C107.88 166.35 103.42 163.61 103.42 158.16C103.42 152.71 107.87 146.63 113.36 144.58C118.85 142.53 123.29 145.27 123.29 150.7Z" stroke="#EEEEEE" stroke-width="3" stroke-linecap="square" stroke-linejoin="round"/>
<path d="M122.11 146.13L127.97 140.59" stroke="#EEEEEE" stroke-width="3" stroke-linecap="square" stroke-linejoin="round"/>
<path d="M122.11 156.14L127.97 157.28" stroke="#EEEEEE" stroke-width="3" stroke-linecap="square" stroke-linejoin="round"/>
<path d="M113.36 164.45V171.16" stroke="#EEEEEE" stroke-width="3" stroke-linecap="square" stroke-linejoin="round"/>
<path d="M104.6 162.74L98.74 168.3" stroke="#EEEEEE" stroke-width="3" stroke-linecap="square" stroke-linejoin="round"/>
<path d="M104.6 152.7L98.74 151.54" stroke="#EEEEEE" stroke-width="3" stroke-linecap="square" stroke-linejoin="round"/>
<path d="M113.36 144.41V137.7" stroke="#EEEEEE" stroke-width="3" stroke-linecap="square" stroke-linejoin="round"/>
<path d="M125 186.66C125.418 187.017 125.748 187.465 125.964 187.969C126.181 188.474 126.279 189.022 126.25 189.57C126.129 191.16 125.567 192.684 124.627 193.972C123.687 195.26 122.407 196.26 120.93 196.86C120.345 197.126 119.708 197.257 119.066 197.243C118.424 197.229 117.793 197.071 117.22 196.78C116.323 198.989 114.585 200.751 112.39 201.68C109.9 202.63 107.8 201.68 107.23 199.68C106.367 200.674 105.281 201.448 104.06 201.94C101.12 203.06 98.74 201.61 98.74 198.69C98.8039 197.603 99.0825 196.54 99.5597 195.562C100.037 194.584 100.703 193.709 101.52 192.99C100.893 192.269 100.567 191.335 100.61 190.38C100.728 188.791 101.287 187.266 102.226 185.978C103.164 184.69 104.443 183.69 105.92 183.09C106.961 182.63 108.138 182.587 109.21 182.97C110.124 180.86 111.819 179.187 113.94 178.3C116.42 177.36 118.51 178.3 119.1 180.3C120.026 179.1 121.255 178.168 122.66 177.6C125.59 176.48 127.97 177.94 127.97 180.84C127.898 181.961 127.597 183.056 127.087 184.057C126.576 185.058 125.866 185.944 125 186.66Z" stroke="#EEEEEE" stroke-width="3" stroke-linecap="square" stroke-linejoin="round"/>
<path d="M90.09 185.88C90.5078 186.239 90.8378 186.688 91.0545 187.195C91.2712 187.701 91.3689 188.25 91.34 188.8C91.2222 190.396 90.6593 191.927 89.7155 193.219C88.7716 194.511 87.4844 195.512 86 196.11C85.4136 196.379 84.7733 196.51 84.1284 196.492C83.4835 196.475 82.8512 196.31 82.28 196.01C81.8425 197.109 81.1899 198.109 80.3605 198.952C79.531 199.796 78.5415 200.464 77.45 200.92C74.96 201.92 72.8601 200.92 72.2901 198.92C71.4241 199.908 70.3383 200.679 69.1201 201.17C66.1801 202.29 63.8 200.81 63.8 197.88C63.8621 196.792 64.1399 195.726 64.6171 194.746C65.0943 193.766 65.7616 192.89 66.5801 192.17C65.9542 191.44 65.6289 190.5 65.67 189.54C65.7773 187.935 66.3341 186.393 67.2767 185.09C68.2192 183.786 69.5095 182.775 71 182.17C72.0443 181.72 73.2204 181.685 74.2901 182.07C75.1926 179.96 76.8822 178.285 79 177.4C81.48 176.47 83.5701 177.4 84.1601 179.4C85.0801 178.194 86.3107 177.261 87.7201 176.7C90.6501 175.59 93.03 177.06 93.03 179.97C92.972 181.104 92.6811 182.214 92.1753 183.231C91.6694 184.248 90.9596 185.15 90.09 185.88Z" stroke="#EEEEEE" stroke-width="3" stroke-linecap="square" stroke-linejoin="round"/>
<path d="M103.85 94.1901C104.561 94.241 105.246 94.4774 105.838 94.8757C106.429 95.274 106.906 95.8202 107.22 96.4601C108.16 98.8901 105.58 102.15 101.47 103.74C97.36 105.33 93.26 104.65 92.33 102.22C91.5 100.08 93.3299 97.3201 96.6399 95.6001" stroke="#EEEEEE" stroke-width="3" stroke-linejoin="round"/>
<path d="M165.58 1.64001L104.71 25.13C104.71 25.13 96.64 27.43 96.64 35.85V104.58" stroke="#EEEEEE" stroke-width="3" stroke-linejoin="round"/>
<path d="M168.49 8.25L107.23 31.89C107.23 31.89 103.86 32.89 103.86 35.89V102.57" stroke="#EEEEEE" stroke-width="3" stroke-linejoin="round"/>
<path d="M168.189 8.42594C169.583 7.89544 170.133 5.94232 169.417 4.06352C168.702 2.18472 166.993 1.09172 165.599 1.62221C164.205 2.15271 163.655 4.10583 164.371 5.98463C165.086 7.86342 166.795 8.95644 168.189 8.42594Z" stroke="#EEEEEE" stroke-width="3" stroke-linejoin="round"/>
</g>
<defs>
<clipPath id="clip0_67_236">
<rect width="171.23" height="320.88" fill="white"/>
</clipPath>
</defs>
</svg>

<svg xmlns="http://www.w3.org/2000/svg" viewBox="0 0 171.23 320.88"><defs><style>.cls-1,.cls-3{fill:none;stroke:#1f1f1f;stroke-linejoin:round;stroke-width:3px;}.cls-2{fill:#1d1d1b;}.cls-3{stroke-linecap:square;}</style></defs><g id="Layer_2" data-name="Layer 2"><g id="Layer_1-2" data-name="Layer 1"><polyline class="cls-1" points="96.64 78.35 1.5 114.51 1.5 115.17 1.5 291.84 47.66 319.38 147.9 281.26 147.9 104.6 147.9 103.93 103.85 77.67"/><polyline class="cls-1" points="147.9 104.6 47.66 142.69 1.5 115.18"/><line class="cls-1" x1="47.66" y1="142.69" x2="47.66" y2="319.38"/><path class="cls-2" d="M64,240.12c0,.55,0,1.29-.09,2.13a41.79,41.79,0,0,0,4.48-2.6l0,2.21c-1.32.81-3,1.73-4.58,2.52,0,.92-.05,1.84-.05,2.66v.79a25.58,25.58,0,0,1,4.74-2.56c3.4-1.31,6-.48,6,2.43,0,2.7-1.57,5.2-4.92,7.29a25.55,25.55,0,0,1-2.89,1.47l-.82-2a15.49,15.49,0,0,0,2.73-1.22c1.91-1.11,3.58-2.75,3.58-4.66,0-1.75-1.58-2.12-3.65-1.32a22.11,22.11,0,0,0-4.67,2.56c0,1.88.09,3.76.09,4.67,0,2.42-.89,3.47-2.23,4-2,.77-5,.12-5-2.06,0-1.94,2.34-4.88,5-7.08v-1.41c0-.8,0-1.66,0-2.53-.57.26-1.07.48-1.5.64-1.39.54-2.26.83-3,1.05l-.07-2.16a27.31,27.31,0,0,0,3-1c.48-.19,1-.42,1.58-.68,0-1,0-1.85,0-2.26a13.35,13.35,0,0,0-.14-1.75l2.51-1C64.13,238.75,64.06,239.55,64,240.12ZM61.1,256.29a1.3,1.3,0,0,0,.78-1.35c0-.73-.05-2-.07-3.5-1.67,1.46-2.85,3.09-2.85,4S60.33,256.59,61.1,256.29Zm15.29-16.92-1.12,2.24A22.26,22.26,0,0,0,70,240.28l1-2.11A27.07,27.07,0,0,1,76.39,239.37Z"/><path class="cls-2" d="M81.74,236.25a49.61,49.61,0,0,0,.16,5.05c.34,3.43,1.28,5.47,2.8,4.88,1.14-.44,2.15-3.3,2.67-5.57l1.8,1.41c-1.44,4.44-2.85,6.32-4.51,7-2.3.89-4.42-.47-5-6.2-.22-1.91-.25-4.62-.25-6a10.28,10.28,0,0,0-.18-2.07l2.78-1A21.22,21.22,0,0,0,81.74,236.25Zm16,3.43-2.34,1.82c-.39-3.75-1.69-8.27-4-10.1l2.26-1.62C95.73,231.6,97.42,236.13,97.71,239.68Z"/><path class="cls-2" d="M104.46,225.83c-.12,2.55-.28,7.84-.28,11,0,2.4,1.49,2.64,3.47,1.87,4-1.55,6.38-4.71,8-7.76l1.62,1.33a19.5,19.5,0,0,1-9.69,8.82c-3.46,1.35-5.78.78-5.78-3,0-3.21.22-9.14.22-11.31a11.63,11.63,0,0,0-.25-2.53l2.92-1.1A21.69,21.69,0,0,0,104.46,225.83Z"/><path class="cls-2" d="M122.5,220.51a49,49,0,0,0,.16,5c.34,3.4,1.28,5.43,2.8,4.84,1.14-.44,2.15-3.29,2.67-5.54l1.8,1.4c-1.44,4.41-2.85,6.29-4.51,6.93-2.3.89-4.42-.45-5-6.14a57,57,0,0,1-.25-6,10,10,0,0,0-.18-2l2.78-1A21.06,21.06,0,0,0,122.5,220.51Zm16,3.37-2.34,1.81c-.39-3.72-1.69-8.21-4-10l2.26-1.61C136.49,215.85,138.18,220.35,138.47,223.88Z"/><path class="cls-2" d="M58.14,275.07c-.33.45-.65.87-1,1.24a11.62,11.62,0,0,0-1.6-.66A17.61,17.61,0,0,0,59,270.37l1.92-.19c-.19.47-.4.93-.65,1.41l9.92-3.87v1.73l-1.56.61v2.11l2.15-.84v1.74l-2.15.84V276l1.92-.75V277l-14.36,5.62v-1.75l2-.77V278l-2.22.87v-1.75l2.22-.87Zm-2.38,11.24a13.35,13.35,0,0,0,1.85-3.89l1.9-.29a14.53,14.53,0,0,1-1.89,4.21Zm4.11-10.73,1.19-.46V273l-1.19.47Zm0,3.85,1.19-.46v-2.1l-1.19.46Zm2.51,1.48a18.66,18.66,0,0,1,.42,2.92l-1.92,1a18.88,18.88,0,0,0-.31-3ZM63.92,274v-2.11l-1.22.48v2.11Zm-1.22,2.23v2.09l1.22-.47v-2.1Zm3,3.32a12.85,12.85,0,0,1,1,2.69l-2,1.15a13.11,13.11,0,0,0-.84-2.8Zm1.12-8.79-1.25.49v2.11l1.25-.49Zm0,3.86-1.25.49v2.1l1.25-.5ZM69,277.89a12.93,12.93,0,0,1,2.09,2.48l-2,1.47a12.41,12.41,0,0,0-2-2.62Z"/><path class="cls-2" d="M77.58,267.38l-5.45,2.13V268l5.45-2.13Zm9.52,5.18a2.58,2.58,0,0,1-.71,2.1A7.48,7.48,0,0,1,83.85,276a4.8,4.8,0,0,0-.55-1.69c.68-.24,1.44-.55,1.69-.65a.38.38,0,0,0,.3-.43V262.36L80,264.42v4.46c0,2.62-.2,6.45-1.48,9.33a4,4,0,0,0-1.38-.44l-2.87,1.13v.66l-1.52.6v-5.62l4.39-1.72v4.57a21.85,21.85,0,0,0,1.08-7.81v-6.13L87.1,260Zm-9.91-2.79-4.38,1.71V270l4.38-1.71Zm-4.38,2.47,4.38-1.71V272l-4.38,1.71Zm4.33-7-4.23,1.65v-1.48l4.23-1.65ZM75.58,275l-1.3.51v1.9l1.3-.51Zm6.25-7.46v-1.12l-1.27.49v-1.41l1.27-.5v-1.07l1.54-.6v1.07l1.3-.51v1.42l-1.3.51v1.12l1.42-.56v1.43l-4.3,1.68V268Zm.15,6.57v.56l-1.39.54v-4.92l4.07-1.59V273Zm0-2.95v1.55l1.26-.49v-1.55Z"/><path class="cls-2" d="M102.73,256.5a12.53,12.53,0,0,1-1.37,3.28,5.94,5.94,0,0,0,2.76.2,10.34,10.34,0,0,0-1.09,1.94,5.93,5.93,0,0,1-2.84-.5,17.24,17.24,0,0,1-3,2.79,4.07,4.07,0,0,0-1.09-1l-.63,1.05c-.4-.15-1.12-.38-1.77-.55v1.69l-1.72.67v-1.56a17.71,17.71,0,0,1-2.19,2.5,4.47,4.47,0,0,0-1.09-.79,17.29,17.29,0,0,0,2.59-2.61l-1.9.75v-3.19l2.59-1v-.55l-3,1.15v-1.3l3-1.15v-.84l1.72-.67v.84l2.93-1.14v1.29L93.69,259v.56l2.7-1v.91a13,13,0,0,0,2-4.37l1.75-.29c-.13.48-.28.95-.44,1.42l4.11-1.6v1.54ZM97.3,268.92l6.61-2.59v1.59l-15,5.9v-1.6l2.42-1v-2.46l1.88-.74v2.47l2.2-.87v-3l-5.52,2.16v-1.55l13-5.09v1.54l-5.58,2.19v.77l4.26-1.67v1.43l-4.26,1.67Zm-6.4-6.27,1.07-.42v-.89l-1.07.42Zm2.79-2v.89l1.08-.42v-.89Zm2.43,2.54A13.91,13.91,0,0,0,99,260.68a5.19,5.19,0,0,1-1-1.05c-.25.37-.48.73-.75,1.06a5.48,5.48,0,0,0-.92-.69v1.66l-2.07.81c.71.08,1.75.2,2.08.27ZM99,258a4.21,4.21,0,0,0,1.06,1.18,9,9,0,0,0,.78-1.9Z"/><path class="cls-2" d="M120.33,261.17,105.49,267V265.2l14.84-5.81Zm-.28-11.93-14.23,5.55V253l14.23-5.55Zm-2.61,8.32c-.55,1.32-1.18,2.68-1.67,3.61l-1.77.19a23.24,23.24,0,0,0,1.22-3.38l-7.7,3v-5.64l11-4.29v5.63l-3,1.19ZM110.5,260a6.82,6.82,0,0,1,1.15,2.26l-1.9,1.32a8.34,8.34,0,0,0-1-2.38Zm-1.06-1.44,7-2.75V253.6l-7,2.74Z"/><path class="cls-2" d="M130.24,245.52c-.53,1.12-1.11,2.34-1.6,3.24l1,.49c-.79,1.1-1.77,2.39-2.73,3.52v.29l3.09-1.43v1.76L127,254.88v2.34a2.22,2.22,0,0,1-.79,2,9,9,0,0,1-2.53,1.28,4.19,4.19,0,0,0-.63-1.52c.7-.25,1.47-.56,1.7-.65s.3-.18.3-.36v-2.14c-1.15.55-2.23,1-3.14,1.47l-.2-1.77L125,254v-1.19l.53-.21c.3-.37.61-.82.91-1.27l-4,1.58v-1.71l5.44-2.13H127a24.31,24.31,0,0,0,1.47-3.49Zm-.25-1.2a58.91,58.91,0,0,1-7.8,4,3.94,3.94,0,0,0-.48-1.4,59.48,59.48,0,0,0,7.11-3.75Zm-7.43,6.73a7.82,7.82,0,0,0-.71-2l1.48-1a7.5,7.5,0,0,1,.78,1.95Zm2.44-1.34a9.24,9.24,0,0,0-.38-2.2l1.57-.82a7.34,7.34,0,0,1,.46,2.11Zm9.7,4.42c.52-.2.6-.87.7-3.46a4.49,4.49,0,0,0,1.83.18c-.18,3.06-.63,4.4-2.35,5.07l-1.93.76c-1.78.7-2.3.21-2.3-2V242.76l2-.8v11.92c0,.9.09,1,.58.81Z"/><polygon class="cls-3" points="139.18 200.89 55.06 233.21 55.06 147.54 139.18 116.3 139.18 200.89"/><path class="cls-3" d="M123.29,150.7c0,5.43-4.45,11.51-9.93,13.58s-9.94-.67-9.94-6.12,4.45-11.53,9.94-13.58S123.29,145.27,123.29,150.7Z"/><line class="cls-3" x1="122.11" y1="146.13" x2="127.97" y2="140.59"/><line class="cls-3" x1="122.11" y1="156.14" x2="127.97" y2="157.28"/><line class="cls-3" x1="113.36" y1="164.45" x2="113.36" y2="171.16"/><line class="cls-3" x1="104.6" y1="162.74" x2="98.74" y2="168.3"/><line class="cls-3" x1="104.6" y1="152.7" x2="98.74" y2="151.54"/><line class="cls-3" x1="113.36" y1="144.41" x2="113.36" y2="137.7"/><path class="cls-3" d="M125,186.66a3.58,3.58,0,0,1,1.25,2.91,8.57,8.57,0,0,1-5.32,7.29,4.28,4.28,0,0,1-3.71-.08,9,9,0,0,1-4.83,4.9c-2.49.95-4.59,0-5.16-2a8.31,8.31,0,0,1-3.17,2.26c-2.94,1.12-5.32-.33-5.32-3.25a8.24,8.24,0,0,1,2.78-5.7,3.72,3.72,0,0,1-.91-2.61,8.55,8.55,0,0,1,5.31-7.29,4.44,4.44,0,0,1,3.29-.12,8.89,8.89,0,0,1,4.73-4.67c2.48-.94,4.57,0,5.16,2a8.53,8.53,0,0,1,3.56-2.7c2.93-1.12,5.31.34,5.31,3.24A8.24,8.24,0,0,1,125,186.66Z"/><path class="cls-3" d="M90.09,185.88a3.6,3.6,0,0,1,1.25,2.92A8.56,8.56,0,0,1,86,196.11a4.22,4.22,0,0,1-3.72-.1,8.88,8.88,0,0,1-4.83,4.91c-2.49,1-4.59,0-5.16-2a8.39,8.39,0,0,1-3.17,2.25c-2.94,1.12-5.32-.36-5.32-3.29a8.23,8.23,0,0,1,2.78-5.71,3.79,3.79,0,0,1-.91-2.63A8.57,8.57,0,0,1,71,182.17a4.48,4.48,0,0,1,3.29-.1A8.82,8.82,0,0,1,79,177.4c2.48-.93,4.57,0,5.16,2a8.37,8.37,0,0,1,3.56-2.7c2.93-1.11,5.31.36,5.31,3.27A8.27,8.27,0,0,1,90.09,185.88Z"/><path class="cls-1" d="M103.85,94.19a4.08,4.08,0,0,1,3.37,2.27c.94,2.43-1.64,5.69-5.75,7.28s-8.21.91-9.14-1.52c-.83-2.14,1-4.9,4.31-6.62"/><path class="cls-1" d="M165.58,1.64,104.71,25.13s-8.07,2.3-8.07,10.72v68.73"/><path class="cls-1" d="M168.49,8.25,107.23,31.89s-3.37,1-3.37,4v66.68"/><ellipse class="cls-1" cx="166.9" cy="5.04" rx="2.7" ry="3.64" transform="translate(9.12 59.69) rotate(-20.84)"/></g></g></svg>
